src/assets/logo.svg

<svg width="32" height="22" viewBox="0 0 32 22" fill="none" xmlns="http://www.w3.org/2000/svg">
<path fill-rule="evenodd" clip-rule="evenodd" d="M29.8947 14.1325C29.6726 13.9177 29.4809 13.7343 29.1816 13.464L18.5495 3.91202C18.4185 3.79377 18.2922 3.67069 18.1824 3.53313C17.9579 3.24835 17.7778 3.00461 17.7778 2.61847C17.7778 2.24682 17.9649 1.94756 18.1847 1.68934H29.9789L26.8947 3.79618H29.9789V4.61672C29.9789 4.67705 29.9766 4.73497 29.9719 4.79289C29.9204 5.43001 29.5533 5.99715 29.0366 6.3495L25.8706 8.41531H27.9353C29.2236 8.41531 29.9812 9.36134 29.9812 10.527V11.7892L31.618 13.4351V10.3122C31.618 8.88109 31.2649 8.11123 30.3179 7.51031C31.1106 6.81286 31.618 5.77512 31.618 4.61672V0H10.6578C4.78175 0 0 4.93528 0 11C0 17.0647 4.78175 22 10.6578 22H31.3561C31.7209 20.7233 32.0179 19.4057 31.9992 18.3124C31.9711 16.8379 31.4029 15.5902 29.8947 14.1325ZM23.1375 3.0094H20.0112L21.8351 4.5829C22.5708 4.43455 23.1104 3.78256 23.1375 3.0094ZM10.6592 20.3107H21.1463C21.3427 20.0331 21.476 19.7073 21.4807 19.3936C21.4901 18.964 21.3544 18.6189 20.9523 18.2304C20.9523 18.2304 12.4527 10.4812 9.62102 7.92301C9.42423 7.74371 9.25978 7.57379 9.10775 7.41669L9.10772 7.41666C9.02854 7.33484 8.95272 7.2565 8.87745 7.18212C7.58907 5.91994 7.31783 3.96031 7.88837 2.14307C4.26639 3.35215 1.63818 6.86597 1.63818 11.0024C1.63818 16.1356 5.68572 20.3107 10.6592 20.3107ZM25.6928 20.3089H22.9968C23.1418 19.9855 23.2306 19.6476 23.2306 19.3121C23.2306 18.5447 23.0108 18.0427 22.4005 17.3549C22.2298 17.1619 22.0521 16.9784 21.8627 16.8047L10.7069 6.63005C10.5376 6.47715 10.4121 6.3366 10.3005 6.21152C10.2642 6.17076 10.2293 6.13165 10.1948 6.09428C9.11451 4.92864 8.99759 3.17897 9.83236 1.73097C10.1036 1.70442 10.3795 1.68994 10.6578 1.68994H12.0444C11.4925 3.19104 11.7474 4.5956 12.9867 5.87226C13.0241 5.91094 13.0607 5.94914 13.0966 5.98669C13.2019 6.09672 13.3018 6.20102 13.4029 6.29459L25.0007 16.9664C25.0545 17.0167 25.1049 17.0691 25.1531 17.1192L25.1531 17.1192L25.1531 17.1192C25.195 17.1627 25.2351 17.2045 25.2743 17.2415C26.2376 18.161 26.3382 19.0418 25.6928 20.3089ZM27.4937 20.3089H30.005C30.2038 19.6404 30.3464 19.0225 30.3487 18.3854C30.3487 17.1208 29.7618 16.4017 28.7213 15.3808C28.5915 15.2532 28.4127 15.0919 28.2185 14.9167C28.1922 14.8931 28.1658 14.8692 28.1391 14.8451L17.507 5.21342C17.3552 5.07638 17.2188 4.93279 17.0797 4.78651C17.0302 4.73442 16.9804 4.68199 16.9294 4.62939C16.4057 4.0888 16.097 3.59165 16.097 2.69148C16.097 2.35361 16.1742 2.01574 16.3028 1.68994H13.7985C13.2677 2.67941 13.3402 3.85471 14.2194 4.75971C14.3078 4.85435 14.399 4.9461 14.493 5.03483L26.0907 15.7066C26.1744 15.784 26.2553 15.8623 26.3407 15.9449C26.3938 15.9962 26.4487 16.0493 26.507 16.1048C27.9263 17.4684 28.1204 18.7233 27.4937 20.3089Z" fill="white"/>
</svg>

<svg width="32" height="22" fill="none" xmlns="http://www.w3.org/2000/svg"><path fill-rule="evenodd" clip-rule="evenodd" d="m29.9 14.13-.72-.67-10.63-9.55a3.24 3.24 0 0 1-.37-.38c-.22-.28-.4-.53-.4-.91 0-.37.18-.67.4-.93h11.8l-3.09 2.1h3.09v1c-.06.64-.43 1.2-.94 1.56l-3.17 2.07h2.07c1.28 0 2.04.94 2.04 2.1v1.27l1.64 1.65V10.3c0-1.43-.36-2.2-1.3-2.8.8-.7 1.3-1.73 1.3-2.9V0H10.66C4.78 0 0 4.94 0 11s4.78 11 10.66 11h20.7c.36-1.28.66-2.6.64-3.69-.03-1.47-.6-2.72-2.1-4.18ZM23.13 3.01H20l1.83 1.57c.73-.15 1.27-.8 1.3-1.57ZM10.66 20.3h10.49c.2-.28.33-.6.33-.92.01-.43-.13-.77-.53-1.16 0 0-8.5-7.75-11.33-10.3l-.51-.51-.23-.24c-1.3-1.26-1.56-3.22-1-5.04A9.3 9.3 0 0 0 1.65 11c0 5.14 4.05 9.31 9.02 9.31Zm15.03 0H23c.15-.32.24-.66.24-1 0-.77-.22-1.27-.83-1.96a9.31 9.31 0 0 0-.54-.55L10.71 6.63a5.13 5.13 0 0 1-.52-.54 3.67 3.67 0 0 1-.36-4.36c.27-.03.55-.04.83-.04h1.38a3.74 3.74 0 0 0 1.06 4.3l.3.3L25 16.97l.15.15.12.12c.97.92 1.07 1.8.42 3.07Zm1.8 0h2.52c.2-.67.34-1.29.34-1.92 0-1.27-.59-1.99-1.63-3-.13-.14-.3-.3-.5-.47l-.08-.07L17.5 5.2a5.7 5.7 0 0 1-.43-.42l-.15-.16a2.5 2.5 0 0 1-.83-1.94c0-.34.07-.67.2-1h-2.5c-.53.99-.46 2.16.42 3.07l.27.27 11.6 10.68.25.23.17.16c1.42 1.37 1.61 2.62.98 4.2Z" fill="#fff"/></svg>
